X:1
T:Title
%%score 1 2 3
L:1/8
Q:1/4=108
M:3/4
K:E
V:1 bass nm="Grand Piano, Piano"
V:2 treble nm="Clarinet, Clarinet"
V:3 treble nm="Steel Gtr., Guitar"
V:1
 E,,>B,, E,B,, E,,2 | B,,>F, B,F, B,,2 | B,,>F, B,F, B,,2 | E,,>B,, E,B,, E,,2 | %4
 E,,>B,, E,B,, E,,2 | A,,>E, A,E, A,,2 | B,,>E, G,B,, D,F, | E,>B,, E,B,, E,,2 |] %8
V:2
 BB BB AG | B2 B4 | BB Bc BA | G6 | EE EE FG | A2 A2 AA | G2 G F2 F | E6 |] %8
V:3
 GG GG FE | D2 D4 | DD DA GF | E6 | G,G, G,G, A,B, | C2 C2 CC | B,2 B, A,2 A, | G,6 |] %8

